X: 5943
T: Camhanaich Air Machair
R: waltz
M: 3/4
K: Amajor
|:cB BA A2|cB B2 B/A/F|cB BA A2|cB BB B/A/F|
EF FB c2|EF Fc B/A/F|EF FB c2|E2 Ec B/A/F:|
|:AB Bc a2|ag gf fc|AB Bc ac|B2 cA B/A/F:|

